X:1
T:Title
%%score { 1 | 2 }
L:1/8
M:6/8
K:Bb
V:1 treble nm="Grand Piano"
V:2 bass 
V:1
 z3 z2[Q:1/4=100] [DF] | [DG]2 [DF] [DB]2 [FB] | [EG]2 [E^F] [D=F]3 | [DF][DG]>[DB] A3 | %4
 AG>^F [D=F]2 [DF] | [DG]2 [DF] [DB]2 [DB] | c2 B G3 | [=EG][EA][EB] [Ec]2 [Ed] | c3 F3 | %9
[M:1/8] F |[M:3/4] [DB]2 [DB] [DB]2 [DG] | AA- A/_A/ =A3 | cc- c/=B/ c3 | dd- d/c/ [DB]2 [DB] | %14
 [Fd]2 [Ec] [DB]2 [DB] | cB G B3 | AA AA Bc |[M:5/8] [DB]-[DB]- [DB]3 |] %18
V:2
 z3 z2 [B,,B,] | [B,,B,]2 [B,,B,] [B,,F,]2 [D,B,] | [E,B,]2 [E,B,] [B,,B,]3 | %3
 [B,,B,][B,,B,]>[B,,B,] [F,CE]3 | [F,CE][F,B,E]>[F,B,E] [B,,B,]2 [B,,B,] | %5
 [B,,B,]2 [B,,B,] [B,,F,]2 [B,,F,] | [E,G,E]2 [E,G,E] [E,B,E]3 | [C,C][C,C][C,G,] [C,G,]2 [C,G,] | %8
 [F,A,E]3 [F,CE]3 |[M:1/8] [F,CE] |[M:3/4] [B,,B,]2 [B,,F,] [B,,F,]2 [B,,B,] | %11
 [F,CE][F,CE]- [F,CE]/[F,=B,E]/ [F,CE]3 | [F,A,F][F,A,F]- [F,A,F]/[F,G,F]/ [F,A,E]3 | %13
 [F,B,F][F,B,F]- [F,B,F]/[F,A,E]/ [B,,B,]2 [B,,B,] | [B,,B,]2 [B,,B,] [B,,F,]2 [B,,F,] | %15
 [E,G,E][E,G,E] [E,B,E] [E,G,E]3 | [F,CE][F,CE] [F,CE][F,CE] [F,B,D][F,A,E] | %17
[M:5/8] [B,,F,B,]-[B,,F,B,]- [B,,F,B,]3 |] %18

